svg/fluentui-system-icons/ic_fluent_save_16_filled.svg

<svg width="16" height="16" viewBox="0 0 16 16" fill="none" xmlns="http://www.w3.org/2000/svg">
<path d="M5 2V4.5C5 5.32843 5.67157 6 6.5 6H8.5C9.32843 6 10 5.32843 10 4.5V2H10.3787C10.9091 2 11.4178 2.21071 11.7929 2.58579L13.4142 4.20711C13.7893 4.58218 14 5.09089 14 5.62132V12C14 13.1046 13.1046 14 12 14V9.5C12 8.67157 11.3284 8 10.5 8H5.5C4.6727 8 4 8.66872 4 9.49827V13.9999C2.89549 13.9999 2 13.1046 2 12V4C2 2.89543 2.89543 2 4 2H5ZM6 2V4.5C6 4.77614 6.22386 5 6.5 5H8.5C8.77614 5 9 4.77614 9 4.5V2H6ZM5 14H11V9.5C11 9.22386 10.7761 9 10.5 9H5.5C5.22273 9 5 9.22326 5 9.49827V14Z" fill="#212121"/>
</svg>

<svg xmlns="http://www.w3.org/2000/svg" width="16" height="16"><path d="M5 2v2.5A1.5 1.5 0 0 0 6.5 6h2A1.5 1.5 0 0 0 10 4.5V2h.379a2 2 0 0 1 1.414.586l1.621 1.621A2 2 0 0 1 14 5.621V12a2 2 0 0 1-2 2V9.5A1.5 1.5 0 0 0 10.5 8h-5C4.673 8 4 8.669 4 9.498V14a2 2 0 0 1-2-2V4a2 2 0 0 1 2-2h1Zm1 0v2.5a.5.5 0 0 0 .5.5h2a.5.5 0 0 0 .5-.5V2H6ZM5 14h6V9.5a.5.5 0 0 0-.5-.5h-5c-.277 0-.5.223-.5.498V14Z"/></svg>
